svg/star-filled-half.svg

<svg xmlns="http://www.w3.org/2000/svg" width="24" height="24" viewBox="0 0 24 24">
	<g fill="currentColor">
		<path d="M12 3l-2.35 5.76l-6.21 0.46l4.76 4.02l-1.49 6.04l5.29 -3.28Z" fill-opacity="0">
			<animate attributeName="fill-opacity" values="0;1" begin="0.5s" dur="0.5s" fill="freeze" />
		</path>
	</g>
	<g fill="none" stroke="currentColor" stroke-width="2" stroke-linecap="round" stroke-linejoin="round">
		<path d="M12 3l-2.35 5.76l-6.21 0.46l4.76 4.02l-1.49 6.04l5.29 -3.28M12 3l2.35 5.76l6.21 0.46l-4.76 4.02l1.49 6.04l-5.29 -3.28" stroke-dasharray="40" stroke-dashoffset="40">
			<animate attributeName="stroke-dashoffset" values="40;0" dur="0.5s" fill="freeze" />
		</path>
	</g>
</svg>

<svg xmlns="http://www.w3.org/2000/svg" width="24" height="24" viewBox="0 0 24 24">
	<path d="M12 3L9.65 8.76L3.44 9.22L8.2 13.24L6.71 19.28L12 16M12 3L14.35 8.76L20.56 9.22L15.8 13.24L17.29 19.28L12 16" fill="none" stroke="currentColor" stroke-width="2" stroke-linecap="round" stroke-linejoin="round" stroke-dasharray="32" stroke-dashoffset="32">
		<animate attributeName="stroke-dashoffset" values="32;0" dur="0.5s" fill="freeze" />
	</path>
	<path d="M12 3L9.65 8.76L3.44 9.22L8.2 13.24L6.71 19.28L12 16Z" fill="currentColor" fill-opacity="0">
		<animate attributeName="fill-opacity" values="0;1" begin="0.5s" dur="0.5s" fill="freeze" />
	</path>
</svg>
